X: 2714
T: Banks Of Lough Gowna, The
R: jig
M: 6/8
K: Bminor
FA|:BdB BAF|FEF DFA|B/c/dB BAF|d2e fed|
~B3 BAF|FEF DFA|def geg|fdB B2A:|
|:def a2b|afb afe|def geg|fdB B2A|
def a2b|afb afe|def geg|fdB B2A:|

